client/src/assets/icons/sports.svg

<svg width="58" height="58" viewBox="0 0 58 58" fill="none" xmlns="http://www.w3.org/2000/svg">
<path d="M47.1733 6.01754C41.5183 0.36254 31.175 1.49837 24.0942 8.57921C20.2275 12.4459 18.0042 17.9317 17.9558 21.7742C17.9075 25.5925 18.5842 31.175 14.6933 35.0659L4.44667 45.3125L7.87833 48.7442L18.125 38.4975C22.0158 34.6067 27.5983 35.2834 31.4167 35.235C35.235 35.1867 40.745 32.9634 44.6117 29.0967C51.6683 22.0159 52.8283 11.6725 47.1733 6.01754ZM24.94 28.2267C21.2425 24.5292 22.4025 17.0859 27.5017 11.9867C32.6008 6.88754 40.02 5.72754 43.7417 9.42504C47.4392 13.1225 46.2792 20.5659 41.18 25.665C36.0808 30.7642 28.6617 31.9242 24.94 28.2267ZM43.5 41.0834C44.7808 41.0834 46.0133 41.5909 46.9075 42.5092C48.7925 44.3942 48.7925 47.4634 46.9075 49.3484C46.0133 50.2425 44.7808 50.75 43.5 50.75C42.2192 50.75 40.9867 50.2425 40.0925 49.3242C38.2075 47.4392 38.2075 44.37 40.0925 42.485C40.9867 41.5909 42.2192 41.0834 43.5 41.0834ZM43.5 36.25C41.586 36.2462 39.7139 36.811 38.1214 37.8727C36.5288 38.9344 35.2874 40.4452 34.5547 42.2134C33.8221 43.9817 33.6311 45.9277 34.0061 47.8046C34.381 49.6816 35.305 51.4048 36.6608 52.7559C38.5458 54.6409 41.035 55.5834 43.5 55.5834C45.414 55.5872 47.2861 55.0224 48.8786 53.9608C50.4712 52.8991 51.7126 51.3883 52.4453 49.62C53.1779 47.8518 53.3689 45.9057 52.9939 44.0288C52.619 42.1519 51.695 40.4286 50.3392 39.0775C49.4409 38.1799 48.3746 37.4682 47.201 36.983C46.0275 36.4979 44.7699 36.2488 43.5 36.25Z" fill="#011034"/>
</svg>

<svg xmlns="http://www.w3.org/2000/svg" width="58" height="58" fill="none" viewBox="0 0 58 58">
  <path fill="#011034" d="M47.173 6.018C41.518.363 31.175 1.498 24.094 8.579c-3.867 3.867-6.09 9.353-6.138 13.195-.049 3.819.628 9.401-3.263 13.292L4.447 45.312l3.431 3.432 10.247-10.246c3.89-3.891 9.473-3.215 13.292-3.263 3.818-.048 9.328-2.272 13.195-6.138 7.056-7.081 8.216-17.425 2.561-23.08ZM24.94 28.227c-3.698-3.698-2.538-11.141 2.562-16.24 5.099-5.1 12.518-6.26 16.24-2.562 3.697 3.697 2.537 11.14-2.562 16.24-5.1 5.1-12.518 6.26-16.24 2.562ZM43.5 41.083c1.28 0 2.513.508 3.407 1.426a4.843 4.843 0 0 1 0 6.84A4.829 4.829 0 0 1 43.5 50.75a4.751 4.751 0 0 1-3.407-1.426 4.843 4.843 0 0 1 0-6.839 4.829 4.829 0 0 1 3.407-1.402Zm0-4.833a9.662 9.662 0 0 0-6.84 16.506 9.663 9.663 0 0 0 6.84 2.827 9.662 9.662 0 0 0 6.84-16.505 9.664 9.664 0 0 0-6.84-2.828Z"/>
</svg>
